X: 1483
T: Gervasoni Waltz No 1
B: australian traditional tunes wiki
M:3/4
L:1/8
R: Waltz
Q: 1/4=100
K:D
V:1 
FG|:"D"A2B2c2|d4 cB|"Em"c2 G4-|G4EF|"A7"G2A2B2|c3B cB|"D"F6-|F4f2|1
"D"f4f2|"G"g4"D"f2|f4e2|"Em"B6|"A7"e3de2|f4ee|e2d2B2|"D"A4FG:|2
"D"f4f2|"G"g4f2|"D"a4g2|"Em"B4cB|"A7"A4g2|f4e2|"D"d6|d4||
% abcbook-tune_id 6342d53aec1f4f5fc9fec8da


% abcbook-boost 0
% abcbook-tablature 
% abcbook-transpose 
% abcbook-lastupdated 1665324367351
% abcbook-soundfonts 
% abcbook-repeats 1
% NFF Book 2014

